assets/svg/1F6C5.svg

<svg xmlns="http://www.w3.org/2000/svg" viewBox="0 0 64 64" enable-background="new 0 0 64 64"><path fill="#1b75bb" d="M64.041,57.137c0,3.816-3.088,6.908-6.902,6.908H6.9c-3.81,0-6.9-3.092-6.9-6.908V6.904    C0,3.094,3.09,0,6.9,0h50.238c3.814,0,6.902,3.094,6.902,6.904V57.137z"/><path fill="#0867a3" d="m0 48.765v8.372c0 3.816 3.09 6.908 6.9 6.908h50.24c3.814 0 6.902-3.092 6.902-6.908v-50.23c-10.936 39.724-50.25 42.24-64.04 41.861"/><g fill="#fff"><path d="m44.793 52.729c0 1.945-1.965 3.519-4.385 3.519h-16.624c-2.419 0-4.385-1.573-4.385-3.519v-22.666c0-1.941 1.965-3.521 4.385-3.521h16.624c2.42 0 4.385 1.58 4.385 3.521v22.666"/><path d="m51.44 53.34c0 1.607-1.024 2.907-2.289 2.907h-8.695c-1.265 0-2.289-1.3-2.289-2.907v-18.723c0-1.605 1.024-2.906 2.289-2.906h8.695c1.265 0 2.289 1.3 2.289 2.906v18.723"/><path d="m25.911 53.34c0 1.607-1.023 2.907-2.295 2.907h-8.716c-1.267 0-2.296-1.3-2.296-2.907v-18.723c0-1.605 1.029-2.906 2.296-2.906h8.716c1.272 0 2.295 1.3 2.295 2.906v18.723"/><path d="m32.02 17.37c-4.75 0-8.602 4.839-8.602 10.803 0 5.964 3.852 10.8 8.602 10.8 4.753 0 8.604-4.836 8.604-10.8 0-5.965-3.852-10.803-8.604-10.803m0 19.745c-3.934 0-7.125-4-7.125-8.942 0-4.939 3.191-8.944 7.125-8.944 3.935 0 7.125 4 7.125 8.944 0 4.941-3.191 8.942-7.125 8.942"/><path d="m21.868 18.278l-12.28-6.915 12.2-6.991c1.706.079 3.049.822 3.053 1.735l.008 1.548 23.18-.057c1.869-.001 3.39.974 3.397 2.197l.012 2.874c.008 1.224-1.499 2.223-3.369 2.233l-23.18.058.006 1.548c.007.913-1.318 1.668-3.03 1.77l0 0"/></g></svg>

<?xml version="1.0" encoding="UTF-8" standalone="no"?>
<!-- Generator: Adobe Illustrator 16.0.0, SVG Export Plug-In . SVG Version: 6.00 Build 0)  -->

<svg
   xmlns:dc="http://purl.org/dc/elements/1.1/"
   xmlns:cc="http://creativecommons.org/ns#"
   xmlns:rdf="http://www.w3.org/1999/02/22-rdf-syntax-ns#"
   xmlns:svg="http://www.w3.org/2000/svg"
   xmlns="http://www.w3.org/2000/svg"
   xmlns:sodipodi="http://sodipodi.sourceforge.net/DTD/sodipodi-0.dtd"
   xmlns:inkscape="http://www.inkscape.org/namespaces/inkscape"
   version="1.1"
   id="Layer_1"
   x="0px"
   y="0px"
   width="64px"
   height="64px"
   viewBox="0 0 64 64"
   enable-background="new 0 0 64 64"
   xml:space="preserve"
   inkscape:version="0.48.5 r10040"
   sodipodi:docname="1F6C5.svg"
   inkscape:export-filename="D:\TESTINGEMOJI\SVGTEST\1F6C5.png"
   inkscape:export-xdpi="90"
   inkscape:export-ydpi="90"><metadata
   id="metadata8077"><rdf:RDF><cc:Work
       rdf:about=""><dc:format>image/svg+xml</dc:format><dc:type
         rdf:resource="http://purl.org/dc/dcmitype/StillImage" /><dc:title></dc:title></cc:Work></rdf:RDF></metadata><defs
   id="defs8075" /><sodipodi:namedview
   pagecolor="#ffffff"
   bordercolor="#666666"
   borderopacity="1"
   objecttolerance="10"
   gridtolerance="10"
   guidetolerance="10"
   inkscape:pageopacity="0"
   inkscape:pageshadow="2"
   inkscape:window-width="640"
   inkscape:window-height="480"
   id="namedview8073"
   showgrid="false"
   inkscape:zoom="3.6875"
   inkscape:cx="32"
   inkscape:cy="32"
   inkscape:window-x="663"
   inkscape:window-y="312"
   inkscape:window-maximized="0"
   inkscape:current-layer="Layer_1" />
<g
   id="g8053">
	<g
   id="g8055">
		<path
   fill="#1B75BB"
   d="M64.041,57.137c0,3.816-3.088,6.908-6.902,6.908H6.9c-3.81,0-6.9-3.092-6.9-6.908V6.904    C0,3.094,3.09,0,6.9,0h50.238c3.814,0,6.902,3.094,6.902,6.904V57.137z"
   id="path8057" />
		<path
   fill="#0867A3"
   d="M0,48.765v8.372c0,3.816,3.09,6.908,6.9,6.908h50.238c3.814,0,6.902-3.092,6.902-6.908V6.904    C53.104,46.628,13.793,49.146,0,48.765z"
   id="path8059" />
	</g>
	<g
   id="g8061">
		<path
   fill="#FFFFFF"
   d="M44.793,52.729c0,1.945-1.965,3.519-4.385,3.519H23.784c-2.419,0-4.385-1.573-4.385-3.519V30.063    c0-1.941,1.965-3.521,4.385-3.521h16.624c2.42,0,4.385,1.58,4.385,3.521V52.729z"
   id="path8063" />
		<path
   fill="#FFFFFF"
   d="M51.438,53.34c0,1.607-1.024,2.907-2.289,2.907h-8.695c-1.265,0-2.289-1.3-2.289-2.907V34.617    c0-1.605,1.024-2.906,2.289-2.906h8.695c1.265,0,2.289,1.3,2.289,2.906V53.34z"
   id="path8065" />
		<path
   fill="#FFFFFF"
   d="M25.911,53.34c0,1.607-1.023,2.907-2.295,2.907h-8.716c-1.267,0-2.296-1.3-2.296-2.907V34.617    c0-1.605,1.029-2.906,2.296-2.906h8.716c1.272,0,2.295,1.3,2.295,2.906V53.34z"
   id="path8067" />
		<path
   fill="#FFFFFF"
   d="M32.021,17.37c-4.75,0-8.602,4.839-8.602,10.803c0,5.964,3.852,10.8,8.602,10.8    c4.753,0,8.604-4.836,8.604-10.8C40.625,22.208,36.773,17.37,32.021,17.37z M32.021,37.115c-3.934,0-7.125-4.001-7.125-8.942    c0-4.939,3.191-8.944,7.125-8.944c3.935,0,7.125,4.005,7.125,8.944C39.146,33.114,35.955,37.115,32.021,37.115z"
   id="path8069" />
	</g>
	<path
   fill="#FFFFFF"
   d="M21.868,18.278l-12.28-6.915l12.2-6.991c1.706,0.079,3.049,0.822,3.053,1.735l0.008,1.548l23.18-0.057   c1.869-0.01,3.39,0.974,3.397,2.197l0.012,2.874c0.008,1.224-1.499,2.223-3.369,2.233L24.888,14.96l0.006,1.548   C24.901,17.421,23.576,18.176,21.868,18.278L21.868,18.278z"
   id="path8071" />
</g>
</svg>
